Obsidian-SemiLight/actions/22s/format-border-style.svg

<svg viewBox="0 0 22 22" xmlns="http://www.w3.org/2000/svg"><path d="m11.996094 3.0019531-7.3261721 7.3261719-.0019531-.003906-1.4140626 1.414062.0019532.003907-.25.25h-.0058594v4.007812h1 2 1.0078125l.2519531-.251953.3535156-.353516.7070313-.707031.3554687-.353516 7.3222658-7.3300778-3.998047-4zm-.583985 1.9960938 2.587891 2.5898437-4.2675781 4.2675784-2.5878907-2.589844zm-4.974609 4.9746093 2.5878906 2.5898438-.7070312.707031-2.5898438-2.589843.2734375-.271485zm-1.4160156 1.4140628 2.5898437 2.589843.0039063.001954-.7070313.707031-.0039062-.001953-2.5898438-2.589844zm-2.0214844 6.613281v1h16v-1z" fill="#4d4d4d"/></svg>

<svg xmlns="http://www.w3.org/2000/svg" viewBox="0 0 22 22">
  <defs id="defs3051">
    <style type="text/css" id="current-color-scheme">
      .ColorScheme-Text {
        color:#4d4d4d;
      }
      </style>
  </defs>
 <path 
    style="fill:currentColor;fill-opacity:1;stroke:none" 
    d="M 11.996094 3.0019531 L 4.6699219 10.328125 L 4.6679688 10.324219 L 3.2539062 11.738281 L 3.2558594 11.742188 L 3.0058594 11.992188 L 3 11.992188 L 3 16 L 4 16 L 6 16 L 7.0078125 16 L 7.2597656 15.748047 L 7.6132812 15.394531 L 8.3203125 14.6875 L 8.6757812 14.333984 L 15.998047 7.0039062 L 12 3.0039062 L 11.996094 3.0019531 z M 11.412109 4.9980469 L 14 7.5878906 L 9.7324219 11.855469 L 7.1445312 9.265625 L 11.412109 4.9980469 z M 6.4375 9.9726562 L 9.0253906 12.5625 L 8.3183594 13.269531 L 5.7285156 10.679688 L 6.0019531 10.408203 L 6.4375 9.9726562 z M 5.0214844 11.386719 L 7.6113281 13.976562 L 7.6152344 13.978516 L 6.9082031 14.685547 L 6.9042969 14.683594 L 4.3144531 12.09375 L 5.0214844 11.386719 z M 3 18 L 3 19 L 19 19 L 19 18 L 3 18 z "
    class="ColorScheme-Text"
    />  
</svg>
